symbols/web/library_add_check/materialsymbolsrounded/library_add_check_wght500grad200fill1_48px.svg

<svg xmlns="http://www.w3.org/2000/svg" height="48" width="48"><path d="m25.2 23.75-3.65-3.7q-.5-.5-1.225-.5-.725 0-1.275.55-.55.5-.55 1.25t.55 1.25l4.75 4.75q.55.6 1.325.6.775 0 1.375-.6L35.85 18q.45-.5.425-1.175-.025-.675-.475-1.275-.55-.45-1.3-.45t-1.25.5Zm-11.7 14.9q-1.6 0-2.75-1.175T9.6 34.75V6.85q0-1.55 1.15-2.725T13.5 2.95h27.95q1.5 0 2.675 1.175Q45.3 5.3 45.3 6.85v27.9q0 1.55-1.175 2.725T41.45 38.65ZM6.6 45.5q-1.55 0-2.7-1.175-1.15-1.175-1.15-2.675v-29.9q0-.8.55-1.35t1.35-.55q.85 0 1.4.55.55.55.55 1.35v29.9h29.85q.8 0 1.4.55.6.55.6 1.35 0 .85-.6 1.4-.6.55-1.4.55Z"/></svg>

<svg xmlns="http://www.w3.org/2000/svg" height="48" width="48"><path d="M25.2 23.75 21.55 20.05Q21.05 19.55 20.325 19.55Q19.6 19.55 19.05 20.1Q18.5 20.6 18.5 21.35Q18.5 22.1 19.05 22.6L23.8 27.35Q24.35 27.95 25.125 27.95Q25.9 27.95 26.5 27.35L35.85 18Q36.3 17.5 36.275 16.825Q36.25 16.15 35.8 15.55Q35.25 15.1 34.5 15.1Q33.75 15.1 33.25 15.6ZM13.5 38.65Q11.9 38.65 10.75 37.475Q9.6 36.3 9.6 34.75V6.85Q9.6 5.3 10.75 4.125Q11.9 2.95 13.5 2.95H41.45Q42.95 2.95 44.125 4.125Q45.3 5.3 45.3 6.85V34.75Q45.3 36.3 44.125 37.475Q42.95 38.65 41.45 38.65ZM6.6 45.5Q5.05 45.5 3.9 44.325Q2.75 43.15 2.75 41.65V11.75Q2.75 10.95 3.3 10.4Q3.85 9.85 4.65 9.85Q5.5 9.85 6.05 10.4Q6.6 10.95 6.6 11.75V41.65Q6.6 41.65 6.6 41.65Q6.6 41.65 6.6 41.65H36.45Q37.25 41.65 37.85 42.2Q38.45 42.75 38.45 43.55Q38.45 44.4 37.85 44.95Q37.25 45.5 36.45 45.5Z"/></svg>
